X: 198
T:Domine, non secundum peccata / Domine, ne memineris / Adjuva nos, deus
N: Derived from Jos1610-Domine_non_secundum_peccata.krn
C: Josquin des Prez
%%abc-version 2.0
%%abcx-abcm2ps-target-version 5.9.1 (29 Sep 2008)
%%abc-creator hum2abc beta
%%abcx-conversion-date 2019/02/12 16:15:47
%%abc-edited-by Jesse Rodin
%%abc-edited-by Jesse Rodin; Victoria Chang 2011/05/10
%%abcx-initial-encoding-date 2011/05/10/
%%humdrum-veritas 103053626
%%humdrum-veritas-data 890193111
%%linebreak <none>
%%barnumbers 0
L: 1/4
M: 2/1
Q: 1/2=120
%%staves [1 2 3 4]
V: 1 clef=treble
V: 2 clef=treble-8
V: 3 clef=treble-8
V: 4 clef=bass
K: F
[V:1] G8 | 
[V:2] G8 | 
[V:3] z8 | 
[V:4] z8 | 
[V:1] F4G4 | 
[V:2] z4G4 | 
[V:3] z8 | 
[V:4] z8 | 
[V:1] F4G4 | 
[V:2] d4e4 | 
[V:3] z8 | 
[V:4] z8 | 
[V:1] F2D2E4 | 
[V:2] d4g4 | 
[V:3] z8 | 
[V:4] z8 | 
[V:1] D8 | 
[V:2] f3edcB2- | 
[V:3] z8 | 
[V:4] z8 | 
[V:1] z4F4 | 
[V:2] B2AGA2d2 | 
[V:3] z8 | 
[V:4] z8 | 
[V:1] G4B4- | 
[V:2] z2G3FGA | 
[V:3] z8 | 
[V:4] z8 | 
[V:1] B4B4 | 
[V:2] BABcdcde | 
[V:3] z8 | 
[V:4] z8 | 
[V:1] A2G2A4 | 
[V:2] f2g4f2 | 
[V:3] z8 | 
[V:4] z8 | 
[V:1] G6A2 | 
[V:2] g2c2z2c2 | 
[V:3] z8 | 
[V:4] z8 | 
[V:1] B2c4B2- | 
[V:2] d2e2f2g2- | 
[V:3] z8 | 
[V:4] z8 | 
[V:1] B2A2G4 | 
[V:2] g2f4e2 | 
[V:3] z8 | 
[V:4] z8 | 
[V:1] F8 | 
[V:2] f2B4AG | 
[V:3] z8 | 
[V:4] z8 | 
[V:1] z4F4 | 
[V:2] B2A2d4 | 
[V:3] z8 | 
[V:4] z8 | 
[V:1] G3ABAB2- | 
[V:2] z2G4d2 | 
[V:3] z8 | 
[V:4] z8 | 
[V:1] B2G4^F2 | 
[V:2] B2c2A4 | 
[V:3] z8 | 
[V:4] z8 | 
[V:1] G6A2 | 
[V:2] z2g4f2 | 
[V:3] z8 | 
[V:4] z8 | 
[V:1] B2c4B2- | 
[V:2] g2e2f2g2- | 
[V:3] z8 | 
[V:4] z8 | 
[V:1] B2A2B2c2- | 
[V:2] g2f2d2_e2- | 
[V:3] z8 | 
[V:4] z8 | 
[V:1] c2B4A2 | 
[V:2] edcBc4 | 
[V:3] z8 | 
[V:4] z8 | 
[V:1] B8 | 
[V:2] z2B4AG | 
[V:3] z8 | 
[V:4] z8 | 
[V:1] z4F4 | 
[V:2] B2A2z2B2- | 
[V:3] z8 | 
[V:4] z8 | 
[V:1] G4B4- | 
[V:2] B2AGd2G2 | 
[V:3] z8 | 
[V:4] z8 | 
[V:1] B2AGB2A2- | 
[V:2] z2d3cde | 
[V:3] z8 | 
[V:4] z8 | 
[V:1] A2G4F2 | 
[V:2] f2g2b2a2- | 
[V:3] z8 | 
[V:4] z8 | 
[V:1] G4A4 | 
[V:2] a2g4f2 | 
[V:3] z8 | 
[V:4] z8 | 
[V:1] G8 | 
[V:2] g2c2z2c2- | 
[V:3] z8 | 
[V:4] z8 | 
[V:1] z2G2G2G2 | 
[V:2] c2B2c2G2 | 
[V:3] z8 | 
[V:4] z8 | 
[V:1] G4A4 | 
[V:2] z2g4f2 | 
[V:3] z8 | 
[V:4] z8 | 
[V:1] G8 | 
[V:2] g2c4B2 | 
[V:3] z8 | 
[V:4] z8 | 
[V:1] z2G4F2 | 
[V:2] c2B2z2d2 | 
[V:3] z8 | 
[V:4] z8 | 
[V:1] G3AB2c2- | 
[V:2] e2g3fed | 
[V:3] z8 | 
[V:4] z8 | 
[V:1] c2B4A2 | 
[V:2] f2B2c4 | 
[V:3] z8 | 
[V:4] z8 | 
[V:1] B4c4- | 
[V:2] B4z4 | 
[V:3] z8 | 
[V:4] z8 | 
[V:1] c4B4 | 
[V:2] F4G4 | 
[V:3] z8 | 
[V:4] z8 | 
[V:1] z4F4 | 
[V:2] F4B4- | 
[V:3] z8 | 
[V:4] z8 | 
[V:1] G4F4 | 
[V:2] B2B2B4- | 
[V:3] z8 | 
[V:4] z8 | 
[V:1] B6B2 | 
[V:2] B2AGg4- | 
[V:3] z8 | 
[V:4] z8 | 
[V:1] B4z2B2- | 
[V:2] g4G4 | 
[V:3] z8 | 
[V:4] z8 | 
[V:1] B2A2G4 | 
[V:2] d4_e3d | 
[V:3] z8 | 
[V:4] z8 | 
[V:1] G4F2G2 | 
[V:2] c2B2A2G2- | 
[V:3] z8 | 
[V:4] z8 | 
[V:1] E2D4G2- | 
[V:2] GFGAB2c2 | 
[V:3] z8 | 
[V:4] z8 | 
[V:1] G2F2G4 | 
[V:2] A2d2e2g2 | 
[V:3] z8 | 
[V:4] z8 | 
[V:1] A8- | 
[V:2] f2d3cde | 
[V:3] z8 | 
[V:4] z8 | 
[V:1] A8 | 
[V:2] f2g4^f2 | 
[V:3] z8 | 
[V:4] z8 | 
[V:1] G8 ||  
[V:2] g8 ||  
[V:3] z8 ||  
[V:4] z8 ||  
[V:1]  [K:F] [K:clef=treble][M:2/1]z8 | 
[V:2]  [K:F] [K:clef=treble-8][M:2/1]z8 | 
[V:3]  [K:F] [K:clef=treble-8][M:2/1]B8- | 
[V:4]  [K:F] [K:clef=bass][M:2/1]D,8 | 
[V:1] z8 | 
[V:2] z8 | 
[V:3] B8 | 
[V:4] _E,4D,4- | 
[V:1] z8 | 
[V:2] z8 | 
[V:3] A8 | 
[V:4] D,2C,B,,C,2D,2 | 
[V:1] z8 | 
[V:2] z8 | 
[V:3] B8 | 
[V:4] G,,4G,4 | 
[V:1] z8 | 
[V:2] z8 | 
[V:3] c8 | 
[V:4] E,2F,2E,2F,2- | 
[V:1] z8 | 
[V:2] z8 | 
[V:3] c8 | 
[V:4] F,2E,D,E,2F,2 | 
[V:1] z8 | 
[V:2] z8 | 
[V:3] d6c2 | 
[V:4] B,,4F,4 | 
[V:1] z8 | 
[V:2] z8 | 
[V:3] B4A4 | 
[V:4] G,4F,4 | 
[V:1] z8 | 
[V:2] z8 | 
[V:3] B6A2 | 
[V:4] G,4D,4 | 
[V:1] z8 | 
[V:2] z8 | 
[V:3] G4F4 | 
[V:4] _E,4D,4 | 
[V:1] z8 | 
[V:2] z8 | 
[V:3] G4A2B2- | 
[V:4] _E,4D,4- | 
[V:1] z8 | 
[V:2] z8 | 
[V:3] B4A2B2- | 
[V:4] D,2B,,2C,2D,2- | 
[V:1] z8 | 
[V:2] z8 | 
[V:3] B4A2B2- | 
[V:4] D,C,D,E,F,2G,2 | 
[V:1] z8 | 
[V:2] z8 | 
[V:3] B2AGA4 | 
[V:4] D,2G,4F,2 | 
[V:1] z8 | 
[V:2] z8 | 
[V:3] G4z4 | 
[V:4] G,2B,2A,2B,2- | 
[V:1] z8 | 
[V:2] z8 | 
[V:3] G4F4 | 
[V:4] B,2A,G,A,4 | 
[V:1] z8 | 
[V:2] z8 | 
[V:3] B4B4- | 
[V:4] G,8 | 
[V:1] z8 | 
[V:2] z8 | 
[V:3] B2A2B4 | 
[V:4] z4D,4 | 
[V:1] z8 | 
[V:2] z8 | 
[V:3] c4d4- | 
[V:4] C,4F,4 | 
[V:1] z8 | 
[V:2] z8 | 
[V:3] d2c2c4- | 
[V:4] F,6E,2 | 
[V:1] z8 | 
[V:2] z8 | 
[V:3] c4B4- | 
[V:4] F,4G,4 | 
[V:1] z8 | 
[V:2] z8 | 
[V:3] B2A2B2A2- | 
[V:4] D,8- | 
[V:1] z8 | 
[V:2] z8 | 
[V:3] A2B2A2B2- | 
[V:4] D,8 | 
[V:1] z8 | 
[V:2] z8 | 
[V:3] B2AGB2A2- | 
[V:4] C,4D,4 | 
[V:1] z8 | 
[V:2] z8 | 
[V:3] A2G4^F2 | 
[V:4] B,,2C,2A,,4 | 
[V:1] z8 | 
[V:2] z8 | 
[V:3] G8 | 
[V:4] G,,4z2G,2 | 
[V:1] z8 | 
[V:2] z8 | 
[V:3] z8 | 
[V:4] G,2B,4G,2 | 
[V:1] z8 | 
[V:2] z8 | 
[V:3] z2G2G2B2- | 
[V:4] A,2B,2G,4- | 
[V:1] z8 | 
[V:2] z8 | 
[V:3] B2G2A2B2 | 
[V:4] G,4z2G,,2- | 
[V:1] z8 | 
[V:2] z8 | 
[V:3] G4z2G2- | 
[V:4] G,,2G,,2A,,2B,,2 | 
[V:1] z8 | 
[V:2] z8 | 
[V:3] G2G2A2B2 | 
[V:4] G,,4z2G,2- | 
[V:1] z8 | 
[V:2] z8 | 
[V:3] G4z2G2- | 
[V:4] G,2G,2A,2B,2 | 
[V:1] z8 | 
[V:2] z8 | 
[V:3] G2G2A2B2 | 
[V:4] G,4F,2D,2 | 
[V:1] z8 | 
[V:2] z8 | 
[V:3] G4F2A2- | 
[V:4] E,4D,4 | 
[V:1] z8 | 
[V:2] z8 | 
[V:3] AGG3FG2 | 
[V:4] C,4E,4 | 
[V:1] z8 | 
[V:2] z8 | 
[V:3] A2B2c4 | 
[V:4] D,4z2C,2 | 
[V:1] z8 | 
[V:2] z8 | 
[V:3] B2c4A2 | 
[V:4] D,2E,2F,4 | 
[V:1] z8 | 
[V:2] z8 | 
[V:3] B2c2F2c2- | 
[V:4] z2C,2D,2C,2 | 
[V:1] z8 | 
[V:2] z8 | 
[V:3] c2B2A2B2- | 
[V:4] D,3E,F,2G,2- | 
[V:1] z8 | 
[V:2] z8 | 
[V:3] B2A2G4 | 
[V:4] G,2F,4E,2 | 
[V:1] !fermata!z8 | 
[V:2] !fermata!z8 | 
[V:3] !fermata!F8 | 
[V:4] !fermata!F,8 | 
[V:1] [M:3/1]z12 | 
[V:2] [M:3/1]z12 | 
[V:3] [M:3/1]F6G2A4 | 
[V:4] [M:3/1]z12 | 
[V:1] z12 | 
[V:2] z12 | 
[V:3] B8A4 | 
[V:4] B,,6C,2D,4 | 
[V:1] z12 | 
[V:2] z12 | 
[V:3] G4B6A2 | 
[V:4] _E,8D,4 | 
[V:1] z12 | 
[V:2] z12 | 
[V:3] A4G6F2 | 
[V:4] C,4_E,4D,4 | 
[V:1] z12 | 
[V:2] z12 | 
[V:3] G4A4z4 | 
[V:4] C,6B,,2C,4 | 
[V:1] z12 | 
[V:2] z12 | 
[V:3] F4F4F4 | 
[V:4] D,8z4 | 
[V:1] z12 | 
[V:2] z12 | 
[V:3] G4F4G4- | 
[V:4] B,,4B,,4B,,4 | 
[V:1] z12 | 
[V:2] z12 | 
[V:3] G4A8 | 
[V:4] C,8D,4 | 
[V:1] z12 | 
[V:2] z12 | 
[V:3] G4G8 | 
[V:4] B,,4C,6B,,2 | 
[V:1] z12 | 
[V:2] z12 | 
[V:3] z4G8 | 
[V:4] G,,6A,,2B,,2C,2 | 
[V:1] z12 | 
[V:2] z12 | 
[V:3] F4G6A2 | 
[V:4] A,,4G,,4G,4- | 
[V:1] z12 | 
[V:2] z12 | 
[V:3] B8A4 | 
[V:4] G,2F,2D,6C,2 | 
[V:1] z12 | 
[V:2] z12 | 
[V:3] B4c8 | 
[V:4] D,4E,4F,4 | 
[V:1] z12 | 
[V:2] z12 | 
[V:3] B12 | 
[V:4] G,6F,2D,4- | 
[V:1] z12 | 
[V:2] z12 | 
[V:3] A4B4A4 | 
[V:4] D,2C,2D,6C,2 | 
[V:1] z12 | 
[V:2] z12 | 
[V:3] B4c8 | 
[V:4] D,4E,4F,4 | 
[V:1] z12 | 
[V:2] z12 | 
[V:3] B8A4 | 
[V:4] B,,4C,8 | 
[V:1] !fermata!z12 ||  
[V:2] !fermata!z12 ||  
[V:3] !fermata!B12 ||  
[V:4] !fermata!B,,12 ||  
[V:1]  [K:C] [K:clef=treble][M:2/1]F8 | 
[V:2]  [K:C] [K:clef=treble-8][M:2/1]d8 | 
[V:3]  [K:C] [K:clef=treble-8][M:2/1]_B8 | 
[V:4]  [K:C] [K:clef=bass][M:2/1]_B,,8 | 
[V:1] F8 | 
[V:2] d8 | 
[V:3] _B8 | 
[V:4] _B,,8 | 
[V:1] G8- | 
[V:2] G6A2 | 
[V:3] _B8 | 
[V:4] _E,8- | 
[V:1] G4D4 | 
[V:2] _B4_B4 | 
[V:3] G4F4 | 
[V:4] E,4D,4 | 
[V:1] _E8 | 
[V:2] c8 | 
[V:3] G6A2 | 
[V:4] C,8 | 
[V:1] D8- | 
[V:2] F8 | 
[V:3] _B8 | 
[V:4] _B,,8 | 
[V:1] D8- | 
[V:2] z4F4 | 
[V:3] z4_B4 | 
[V:4] z4D,4 | 
[V:1] D8 | 
[V:2] F4F4 | 
[V:3] _B4_B4 | 
[V:4] D,4D,4 | 
[V:1] z8 | 
[V:2] E4F4 | 
[V:3] A4_B4 | 
[V:4] C,4_B,,4 | 
[V:1] z8 | 
[V:2] G8 | 
[V:3] c8 | 
[V:4] _E,8 | 
[V:1] z4F4 | 
[V:2] F6E2 | 
[V:3] _B6A2 | 
[V:4] D,6C,2 | 
[V:1] G4A4 | 
[V:2] D4C4 | 
[V:3] G4F4 | 
[V:4] _B,,4A,,4 | 
[V:1] _B6AG | 
[V:2] D2d3cde | 
[V:3] G8 | 
[V:4] G,,4G,4 | 
[V:1] c4_B2A2- | 
[V:2] f2c2d4 | 
[V:3] A8- | 
[V:4] F,4D,2F,2- | 
[V:1] A2G2F2A2- | 
[V:2] c4d4 | 
[V:3] A8- | 
[V:4] F,2E,2D,2F,2- | 
[V:1] AGG4^F2 | 
[V:2] c4d4 | 
[V:3] A8 | 
[V:4] F,2E,2D,4 | 
[V:1] G8 ||  
[V:2] _B8 ||  
[V:3] G8 ||  
[V:4] G,,8 ||  
[V:1]  [K:C] [K:clef=treble][M:2/1]_B8 | 
[V:2]  [K:C] [K:clef=treble-8][M:2/1]z8 | 
[V:3]  [K:C] [K:clef=treble-8][M:2/1]z8 | 
[V:4]  [K:C] [K:clef=bass][M:2/1]z8 | 
[V:1] d8 | 
[V:2] z8 | 
[V:3] z8 | 
[V:4] z8 | 
[V:1] _e8 | 
[V:2] z8 | 
[V:3] z8 | 
[V:4] z8 | 
[V:1] d4d4 | 
[V:2] _B8 | 
[V:3] z8 | 
[V:4] z8 | 
[V:1] d4d4- | 
[V:2] d8 | 
[V:3] z8 | 
[V:4] z8 | 
[V:1] d2c_Bc4 | 
[V:2] _e8 | 
[V:3] z8 | 
[V:4] z8 | 
[V:1] d8 | 
[V:2] d4d4 | 
[V:3] _B8 | 
[V:4] z8 | 
[V:1] z8 | 
[V:2] d4d4- | 
[V:3] d8 | 
[V:4] z8 | 
[V:1] G4G4 | 
[V:2] d2c_Bc4 | 
[V:3] _e8 | 
[V:4] z8 | 
[V:1] F4_B4- | 
[V:2] d8 | 
[V:3] d4d4 | 
[V:4] _B,,8 | 
[V:1] B2A2F4 | 
[V:2] z8 | 
[V:3] d4d4- | 
[V:4] D,8 | 
[V:1] G8 | 
[V:2] G4G4 | 
[V:3] d2c_Bc4 | 
[V:4] _E,8 | 
[V:1] A4D4 | 
[V:2] F4_B4- | 
[V:3] d8- | 
[V:4] D,4D,4 | 
[V:1] F8 | 
[V:2] B2A2_B4 | 
[V:3] d8 | 
[V:4] D,8 | 
[V:1] _E4D4 | 
[V:2] c4d4- | 
[V:3] G8 | 
[V:4] C,4_B,,4 | 
[V:1] _E8 | 
[V:2] d4c4 | 
[V:3] G8 | 
[V:4] C,8 | 
[V:1] D8- | 
[V:2] _B4A4 | 
[V:3] F8 | 
[V:4] D,8 | 
[V:1] D4G4- | 
[V:2] G6F2 | 
[V:3] _B8 | 
[V:4] z8 | 
[V:1] G8 | 
[V:2] _E2D2_E4 | 
[V:3] _B4c4 | 
[V:4] z8 | 
[V:1] F8- | 
[V:2] D8 | 
[V:3] d8- | 
[V:4] _B,,8- | 
[V:1] F4_B4- | 
[V:2] f8- | 
[V:3] d8 | 
[V:4] B,,8 | 
[V:1] B4A4 | 
[V:2] f8 | 
[V:3] c8 | 
[V:4] F,8 | 
[V:1] G4A4- | 
[V:2] _e4f4 | 
[V:3] _B4A4 | 
[V:4] G,4F,4 | 
[V:1] A4G4 | 
[V:2] d8- | 
[V:3] _B8 | 
[V:4] G,8 | 
[V:1] A4F4 | 
[V:2] d8 | 
[V:3] A4_B4- | 
[V:4] D,8 | 
[V:1] G4A4- | 
[V:2] G4c4- | 
[V:3] B4A4- | 
[V:4] _E,4F,4- | 
[V:1] A4F4 | 
[V:2] c2_BAd4 | 
[V:3] A4_B4- | 
[V:4] F,4D,4 | 
[V:1] G4A4 | 
[V:2] G4c4 | 
[V:3] B4A4 | 
[V:4] _E,4F,4 | 
[V:1] D4G4- | 
[V:2] _B4c4 | 
[V:3] _B4G4 | 
[V:4] G,4_E,4 | 
[V:1] G2E2^F4 | 
[V:2] d8 | 
[V:3] A8 | 
[V:4] D,8 | 
[V:1] G8- | 
[V:2] _B3cd2_e2- | 
[V:3] G8- | 
[V:4] G,,8 | 
[V:1] G8 | 
[V:2] e2d2_e2d2- | 
[V:3] G8 | 
[V:4] z4G,4 | 
[V:1] z8 | 
[V:2] d2_B2c3_B | 
[V:3] z8 | 
[V:4] G,4A,4 | 
[V:1] z4G4 | 
[V:2] G3A_Bc_B2- | 
[V:3] z8 | 
[V:4] _B,6G,2 | 
[V:1] G4A4 | 
[V:2] B2AGF4 | 
[V:3] z8 | 
[V:4] G,4z4 | 
[V:1] _B6G2 | 
[V:2] z8 | 
[V:3] z4G4 | 
[V:4] G,3A,_B,CB,2- | 
[V:1] G4z4 | 
[V:2] z8 | 
[V:3] G4A4 | 
[V:4] B,2A,G,^F,4 | 
[V:1] z4G4- | 
[V:2] d4G2d2 | 
[V:3] _B6G2 | 
[V:4] G,8 | 
[V:1] G4A4- | 
[V:2] e2g4fe | 
[V:3] G4z4 | 
[V:4] z4D,4- | 
[V:1] A4G4 | 
[V:2] f4_B4 | 
[V:3] z4G4- | 
[V:4] D,4_E,4- | 
[V:1] G4z4 | 
[V:2] c4d4 | 
[V:3] G4A4- | 
[V:4] E,4D,4 | 
[V:1] F4G4- | 
[V:2] z2d3c_BA | 
[V:3] A4G4 | 
[V:4] D,4z4 | 
[V:1] G4F4 | 
[V:2] _B3cA2_B2- | 
[V:3] G4z4 | 
[V:4] z4D,4 | 
[V:1] G4A4- | 
[V:2] B2AGF2f2- | 
[V:3] z8 | 
[V:4] _E,4D,4 | 
[V:1] A4G4 | 
[V:2] fedce2d2- | 
[V:3] F4G4- | 
[V:4] z8 | 
[V:1] G4z4 | 
[V:2] d2c_BA4 | 
[V:3] G4F4 | 
[V:4] z4D,4 | 
[V:1] z8 | 
[V:2] z2g4fe | 
[V:3] G4A4- | 
[V:4] _E,4C,4 | 
[V:1] z8 | 
[V:2] f2d4c_B | 
[V:3] A4G4 | 
[V:4] D,4_E,4- | 
[V:1] G4A2_B2- | 
[V:2] c2g2f2d2- | 
[V:3] G4z4 | 
[V:4] E,4D,4 | 
[V:1] B2AGA2_B2- | 
[V:2] dcg2f2d2- | 
[V:3] z8 | 
[V:4] _E,4D,4 | 
[V:1] B2A2G4 | 
[V:2] d2c_Bc4 | 
[V:3] G8 | 
[V:4] _E,8 | 
[V:1] F8 | 
[V:2] d8 | 
[V:3] A4_B4- | 
[V:4] D,8 | 
[V:1] z8 | 
[V:2] G4d4- | 
[V:3] B2AGA2_B2- | 
[V:4] _E,4D,4 | 
[V:1] z8 | 
[V:2] d4c4 | 
[V:3] B2A2G4 | 
[V:4] _E,8 | 
[V:1] A6G2 | 
[V:2] d8- | 
[V:3] F8 | 
[V:4] D,8- | 
[V:1] A4_B4 | 
[V:2] d8 | 
[V:3] z8 | 
[V:4] D,8 | 
[V:1] c6_B2 | 
[V:2] z4c4- | 
[V:3] A6G2 | 
[V:4] z8 | 
[V:1] A4G4- | 
[V:2] c4d4 | 
[V:3] A4_B4 | 
[V:4] z8 | 
[V:1] G2F2E2DC | 
[V:2] e4g4- | 
[V:3] c8 | 
[V:4] C,8 | 
[V:1] D4C4 | 
[V:2] g2f2e4 | 
[V:3] _B4c4 | 
[V:4] G,,4C,4 | 
[V:1] G8 | 
[V:2] d4e4 | 
[V:3] _B4c4 | 
[V:4] G,,4C,4 | 
[V:1] F4G4- | 
[V:2] d8 | 
[V:3] A4_B4 | 
[V:4] D,4_B,,4 | 
[V:1] G2A2F4- | 
[V:2] c4d4 | 
[V:3] A4_B4 | 
[V:4] F,4_B,,4 | 
[V:1] F4E4 | 
[V:2] c8 | 
[V:3] G8 | 
[V:4] C,8 | 
[V:1] !fermata!F8 | 
[V:2] !fermata!A8 | 
[V:3] !fermata!F8 | 
[V:4] !fermata!F,,8 | 
[V:1] [M:3/1]z12 | 
[V:2] [M:3/1]z12 | 
[V:3] [M:3/1]F8G4 | 
[V:4] [M:3/1]D,8_B,,4 | 
[V:1] z12 | 
[V:2] z12 | 
[V:3] A4_B6A2 | 
[V:4] C,4D,4G,,4- | 
[V:1] z12 | 
[V:2] z12 | 
[V:3] G8F4 | 
[V:4] G,,4A,,8 | 
[V:1] z12 | 
[V:2] z12 | 
[V:3] G4F4G4 | 
[V:4] G,,4D,4_E,4 | 
[V:1] F8G4 | 
[V:2] d8_B4 | 
[V:3] A8G4 | 
[V:4] D,8z4 | 
[V:1] A4_B6A2 | 
[V:2] c4d4G4- | 
[V:3] z12 | 
[V:4] z12 | 
[V:1] G8F4 | 
[V:2] G4A8 | 
[V:3] z12 | 
[V:4] z12 | 
[V:1] G4F4G4 | 
[V:2] G4d4e4 | 
[V:3] z12 | 
[V:4] z12 | 
[V:1] A8G4 | 
[V:2] f8g4 | 
[V:3] z12 | 
[V:4] z12 | 
[V:1] z12 | 
[V:2] _b4a6g2 | 
[V:3] G4F4G4- | 
[V:4] z12 | 
[V:1] z12 | 
[V:2] g4e4f4 | 
[V:3] G4A8 | 
[V:4] z4z4D,4 | 
[V:1] G4F4G4- | 
[V:2] _B8G4 | 
[V:3] G4z4z4 | 
[V:4] _E,4D,4E,4 | 
[V:1] G4A8 | 
[V:2] c12- | 
[V:3] z12 | 
[V:4] C,4F,8 | 
[V:1] G4z4z4 | 
[V:2] c4d4_B4 | 
[V:3] G8F4 | 
[V:4] _E,4D,6C,2 | 
[V:1] G8^F4 | 
[V:2] c4d8 | 
[V:3] G4A8 | 
[V:4] _E,4D,8 | 
[V:1] G8A4 | 
[V:2] d4e4c4 | 
[V:3] _B4c6_B2 | 
[V:4] G,,4C,8 | 
[V:1] _B4c6B2 | 
[V:2] f4g4a4 | 
[V:3] _B8A4 | 
[V:4] D,4E,4F,4 | 
[V:1] _B8A4 | 
[V:2] d4e4f4 | 
[V:3] _B4c6_B2 | 
[V:4] G,8F,4 | 
[V:1] _B4c6B2 | 
[V:2] _B4f4d4 | 
[V:3] G4F4_B4- | 
[V:4] G,4A,4_B,4 | 
[V:1] G4F8 | 
[V:2] _e4d6c2 | 
[V:3] B2c2d2e2f4 | 
[V:4] _E,4_B,6A,2 | 
[V:1] _B8A4 | 
[V:2] d2e2f8 | 
[V:3] _B4c8 | 
[V:4] G,4F,8 | 
[V:1] !fermata!_B12 | 
[V:2] !fermata!d12 | 
[V:3] !fermata!_B12 | 
[V:4] !fermata!_B,,12 | 
[V:1] [M:2/1]z8 | 
[V:2] [M:2/1]G8- | 
[V:3] [M:2/1]_B8 | 
[V:4] [M:2/1]_E,8- | 
[V:1] z8 | 
[V:2] G8- | 
[V:3] c8 | 
[V:4] E,8- | 
[V:1] z8 | 
[V:2] G8 | 
[V:3] _B8- | 
[V:4] E,8 | 
[V:1] z8 | 
[V:2] F8 | 
[V:3] B4A4 | 
[V:4] D,6C,2 | 
[V:1] _B8 | 
[V:2] D4E4 | 
[V:3] G8 | 
[V:4] _B,,2A,,2G,,4 | 
[V:1] c8 | 
[V:2] C8 | 
[V:3] F8 | 
[V:4] A,,8 | 
[V:1] _B6A2 | 
[V:2] D4_E4- | 
[V:3] G6A2 | 
[V:4] G,,8 | 
[V:1] G4F4 | 
[V:2] E4D2d2- | 
[V:3] _B2G2A4 | 
[V:4] z4D,4 | 
[V:1] G6A2 | 
[V:2] d2c2_e4 | 
[V:3] z4c4 | 
[V:4] _E,4C,4 | 
[V:1] _B2G2A4 | 
[V:2] d3ef4 | 
[V:3] _B4c4- | 
[V:4] G,4F,4 | 
[V:1] z2G3EF2 | 
[V:2] g4G2F2 | 
[V:3] c2_B2c2_B2- | 
[V:4] _E,6D,2 | 
[V:1] G4F4- | 
[V:2] _B3cd4- | 
[V:3] B2G2A4 | 
[V:4] _E,4D,3C, | 
[V:1] F2G4E2 | 
[V:2] d2G2G4 | 
[V:3] _B4c4 | 
[V:4] D,2_E,2C,4 | 
[V:1] F2G2A4 | 
[V:2] _B4A4 | 
[V:3] d4c2d2- | 
[V:4] _B,,4F,4 | 
[V:1] D4z4 | 
[V:2] _B2G2A2c2- | 
[V:3] d2_B2A2G2- | 
[V:4] G,4F,2_E,2 | 
[V:1] z8 | 
[V:2] c2_B2_e4- | 
[V:3] G2F2G2_B2- | 
[V:4] D,4C,4- | 
[V:1] z8 | 
[V:2] e4d4 | 
[V:3] B2A2_B2d2- | 
[V:4] C,4_B,,4 | 
[V:1] G4F2D2 | 
[V:2] G4d4 | 
[V:3] d2c2A2_B2- | 
[V:4] _E,4D,2_B,,2 | 
[V:1] _E4D4 | 
[V:2] z2c2d2_B2- | 
[V:3] B2A2_B2d2- | 
[V:4] C,4G,3F, | 
[V:1] z4z2G2- | 
[V:2] B2A2_B2G2 | 
[V:3] d2c4_B2- | 
[V:4] D,2F,2_E,4 | 
[V:1] G2F2G4 | 
[V:2] d4z2d2 | 
[V:3] B2A4G2- | 
[V:4] D,4C,2_B,,2 | 
[V:1] A4D4 | 
[V:2] c2A2_B2AG | 
[V:3] G2^F2G4 | 
[V:4] A,,4G,,4 | 
[V:1] z2F2E2F2- | 
[V:2] F3DE2D2 | 
[V:3] A8- | 
[V:4] D,4C,2D,2- | 
[V:1] FGA_Bc2A2 | 
[V:2] f3d_e2d2- | 
[V:3] A8- | 
[V:4] D,4C,2D,2 | 
[V:1] c_BAGF4 | 
[V:2] d2c2d2D2 | 
[V:3] A8 | 
[V:4] A,,4D,4 | 
[V:1] z2F2E2F2- | 
[V:2] F3DE2D2 | 
[V:3] A8- | 
[V:4] z2D,2C,2D,2- | 
[V:1] FGA_Bc2A2- | 
[V:2] f3d_e2d2 | 
[V:3] A8- | 
[V:4] D,4C,2D,2 | 
[V:1] A2G4^F2 | 
[V:2] _e4d4- | 
[V:3] A8 | 
[V:4] C,4D,4 | 
[V:1] G8- | 
[V:2] d4_B4 | 
[V:3] G8- | 
[V:4] !fermata!G,,8- | 
[V:1] G8 |]  
[V:2] _B8 |]  
[V:3] G8 |]  
[V:4] G,,8 |]  



